(G-CODE GENERATED BY FLATCAM v8.994 - www.flatcam.org - Version Date: 2020/11/7)

(Name: Drill_PTH_Through.DRL_edit_cnc)
(Type: G-code from Geometry)
(Units: MM)

(Created on Wednesday, 08 June 2022 at 17:31)

(This preprocessor is used with a motion controller loaded with GRBL firmware.)
(It is configured to be compatible with almost any version of GRBL firmware.)


(TOOLS DIAMETER: )
(Tool: 1 -> Dia: 0.9)
(Tool: 2 -> Dia: 2.3)

(FEEDRATE Z: )
(Tool: 1 -> Feedrate: 60.0)
(Tool: 2 -> Feedrate: 60.0)

(FEEDRATE RAPIDS: )
(Tool: 1 -> Feedrate Rapids: 1500)
(Tool: 2 -> Feedrate Rapids: 1500)

(Z_CUT: )
(Tool: 1 -> Z_Cut: -1.8)
(Tool: 2 -> Z_Cut: -1.8)

(Tools Offset: )
(Tool: 1 -> Offset Z: 0.0)
(Tool: 2 -> Offset Z: 0.0)

(Z_MOVE: )
(Tool: 1 -> Z_Move: 2)
(Tool: 2 -> Z_Move: 2)

(Z Toolchange: 20.0 mm)
(X,Y Toolchange: 0.0000, 0.0000 mm)
(Z Start: None mm)
(Z End: 0.5 mm)
(X,Y End: None mm)
(Steps per circle: 64)
(Steps per circle: 64)
(Preprocessor Excellon: grbl_11)

(X range:    0.9070 ...   59.2150  mm)
(Y range:  -19.4890 ...   -1.6810  mm)

(Spindle Speed: 100 RPM)
G21
G90
G17
G94


G01 F60.00

M5             
G00 Z20.0000
G00 X0.0000 Y0.0000                
T1
M6
(MSG, Change to Tool Dia = 0.9000 ||| Total drills for tool T1 = 79)
M0
G00 Z20.0000

G01 F60.00
M03 S100
G4 P1
G00 X5.8670 Y-10.2870
G01 Z-1.8000
G01 Z0
G00 Z2.0000
G00 X5.8670 Y-8.1790
G01 Z-1.8000
G01 Z0
G00 Z2.0000
G00 X8.3570 Y-8.1790
G01 Z-1.8000
G01 Z0
G00 Z2.0000
G00 X13.0000 Y-7.6900
G01 Z-1.8000
G01 Z0
G00 Z2.0000
G00 X13.0000 Y-10.2300
G01 Z-1.8000
G01 Z0
G00 Z2.0000
G00 X13.0000 Y-12.7700
G01 Z-1.8000
G01 Z0
G00 Z2.0000
G00 X17.4270 Y-12.8410
G01 Z-1.8000
G01 Z0
G00 Z2.0000
G00 X19.9670 Y-12.8410
G01 Z-1.8000
G01 Z0
G00 Z2.0000
G00 X19.9670 Y-10.3010
G01 Z-1.8000
G01 Z0
G00 Z2.0000
G00 X17.4270 Y-10.3010
G01 Z-1.8000
G01 Z0
G00 Z2.0000
G00 X17.4270 Y-7.7610
G01 Z-1.8000
G01 Z0
G00 Z2.0000
G00 X19.9670 Y-7.7610
G01 Z-1.8000
G01 Z0
G00 Z2.0000
G00 X17.4270 Y-4.6710
G01 Z-1.8000
G01 Z0
G00 Z2.0000
G00 X17.4270 Y-2.1310
G01 Z-1.8000
G01 Z0
G00 Z2.0000
G00 X19.9670 Y-2.1310
G01 Z-1.8000
G01 Z0
G00 Z2.0000
G00 X19.9670 Y-4.6710
G01 Z-1.8000
G01 Z0
G00 Z2.0000
G00 X25.6020 Y-4.7980
G01 Z-1.8000
G01 Z0
G00 Z2.0000
G00 X25.6020 Y-2.2580
G01 Z-1.8000
G01 Z0
G00 Z2.0000
G00 X28.1420 Y-2.2580
G01 Z-1.8000
G01 Z0
G00 Z2.0000
G00 X28.1420 Y-4.7980
G01 Z-1.8000
G01 Z0
G00 Z2.0000
G00 X30.6820 Y-4.7980
G01 Z-1.8000
G01 Z0
G00 Z2.0000
G00 X30.6820 Y-2.2580
G01 Z-1.8000
G01 Z0
G00 Z2.0000
G00 X33.2220 Y-2.2580
G01 Z-1.8000
G01 Z0
G00 Z2.0000
G00 X33.2220 Y-4.7980
G01 Z-1.8000
G01 Z0
G00 Z2.0000
G00 X35.7620 Y-4.7980
G01 Z-1.8000
G01 Z0
G00 Z2.0000
G00 X35.7620 Y-2.2580
G01 Z-1.8000
G01 Z0
G00 Z2.0000
G00 X38.3020 Y-2.2580
G01 Z-1.8000
G01 Z0
G00 Z2.0000
G00 X38.3020 Y-4.7980
G01 Z-1.8000
G01 Z0
G00 Z2.0000
G00 X40.8420 Y-4.7980
G01 Z-1.8000
G01 Z0
G00 Z2.0000
G00 X40.8420 Y-2.2580
G01 Z-1.8000
G01 Z0
G00 Z2.0000
G00 X43.3820 Y-2.2580
G01 Z-1.8000
G01 Z0
G00 Z2.0000
G00 X43.3820 Y-4.7980
G01 Z-1.8000
G01 Z0
G00 Z2.0000
G00 X45.9220 Y-4.7980
G01 Z-1.8000
G01 Z0
G00 Z2.0000
G00 X45.9220 Y-2.2580
G01 Z-1.8000
G01 Z0
G00 Z2.0000
G00 X48.4620 Y-2.2580
G01 Z-1.8000
G01 Z0
G00 Z2.0000
G00 X48.4620 Y-4.7980
G01 Z-1.8000
G01 Z0
G00 Z2.0000
G00 X51.0020 Y-4.7980
G01 Z-1.8000
G01 Z0
G00 Z2.0000
G00 X51.0020 Y-2.2580
G01 Z-1.8000
G01 Z0
G00 Z2.0000
G00 X53.5420 Y-2.2580
G01 Z-1.8000
G01 Z0
G00 Z2.0000
G00 X53.5420 Y-4.7980
G01 Z-1.8000
G01 Z0
G00 Z2.0000
G00 X56.0820 Y-4.7980
G01 Z-1.8000
G01 Z0
G00 Z2.0000
G00 X56.0820 Y-2.2580
G01 Z-1.8000
G01 Z0
G00 Z2.0000
G00 X58.6220 Y-2.2580
G01 Z-1.8000
G01 Z0
G00 Z2.0000
G00 X58.6220 Y-4.7980
G01 Z-1.8000
G01 Z0
G00 Z2.0000
G00 X58.7650 Y-10.3230
G01 Z-1.8000
G01 Z0
G00 Z2.0000
G00 X56.2250 Y-10.3230
G01 Z-1.8000
G01 Z0
G00 Z2.0000
G00 X53.6850 Y-10.3230
G01 Z-1.8000
G01 Z0
G00 Z2.0000
G00 X51.1450 Y-10.3230
G01 Z-1.8000
G01 Z0
G00 Z2.0000
G00 X48.6050 Y-10.3230
G01 Z-1.8000
G01 Z0
G00 Z2.0000
G00 X46.0650 Y-10.3230
G01 Z-1.8000
G01 Z0
G00 Z2.0000
G00 X43.5250 Y-10.3230
G01 Z-1.8000
G01 Z0
G00 Z2.0000
G00 X40.9850 Y-10.3230
G01 Z-1.8000
G01 Z0
G00 Z2.0000
G00 X38.4450 Y-10.3230
G01 Z-1.8000
G01 Z0
G00 Z2.0000
G00 X35.9050 Y-10.3230
G01 Z-1.8000
G01 Z0
G00 Z2.0000
G00 X33.3650 Y-10.3230
G01 Z-1.8000
G01 Z0
G00 Z2.0000
G00 X30.8250 Y-10.3230
G01 Z-1.8000
G01 Z0
G00 Z2.0000
G00 X28.2850 Y-10.3230
G01 Z-1.8000
G01 Z0
G00 Z2.0000
G00 X25.7450 Y-10.3230
G01 Z-1.8000
G01 Z0
G00 Z2.0000
G00 X58.7650 Y-18.3230
G01 Z-1.8000
G01 Z0
G00 Z2.0000
G00 X56.2250 Y-18.3230
G01 Z-1.8000
G01 Z0
G00 Z2.0000
G00 X53.6850 Y-18.3230
G01 Z-1.8000
G01 Z0
G00 Z2.0000
G00 X51.1450 Y-18.3230
G01 Z-1.8000
G01 Z0
G00 Z2.0000
G00 X48.6050 Y-18.3230
G01 Z-1.8000
G01 Z0
G00 Z2.0000
G00 X46.0650 Y-18.3230
G01 Z-1.8000
G01 Z0
G00 Z2.0000
G00 X43.5250 Y-18.3230
G01 Z-1.8000
G01 Z0
G00 Z2.0000
G00 X40.9850 Y-18.3230
G01 Z-1.8000
G01 Z0
G00 Z2.0000
G00 X38.4450 Y-18.3230
G01 Z-1.8000
G01 Z0
G00 Z2.0000
G00 X35.9050 Y-18.3230
G01 Z-1.8000
G01 Z0
G00 Z2.0000
G00 X33.3650 Y-18.3230
G01 Z-1.8000
G01 Z0
G00 Z2.0000
G00 X30.8250 Y-18.3230
G01 Z-1.8000
G01 Z0
G00 Z2.0000
G00 X28.2850 Y-18.3230
G01 Z-1.8000
G01 Z0
G00 Z2.0000
G00 X25.7450 Y-18.3230
G01 Z-1.8000
G01 Z0
G00 Z2.0000
G00 X19.9670 Y-19.0220
G01 Z-1.8000
G01 Z0
G00 Z2.0000
G00 X19.9670 Y-15.9310
G01 Z-1.8000
G01 Z0
G00 Z2.0000
G00 X17.4270 Y-15.9310
G01 Z-1.8000
G01 Z0
G00 Z2.0000
G00 X13.0000 Y-15.3100
G01 Z-1.8000
G01 Z0
G00 Z2.0000
G00 X8.3060 Y-14.9860
G01 Z-1.8000
G01 Z0
G00 Z2.0000
G00 X5.8670 Y-14.9860
G01 Z-1.8000
G01 Z0
G00 Z2.0000
G00 X5.8670 Y-12.8780
G01 Z-1.8000
G01 Z0
G00 Z2.0000
G01 F60.00

M5             
G00 Z20.0000
G00 X0.0000 Y0.0000                
T2
M6
(MSG, Change to Tool Dia = 2.3000 ||| Total drills for tool T2 = 3)
M0
G00 Z20.0000

G01 F60.00
M03 S100
G4 P1
G00 X2.8700 Y-4.7750
G01 Z-1.8000
G01 Z0
G00 Z2.0000
G00 X2.0570 Y-11.5820
G01 Z-1.8000
G01 Z0
G00 Z2.0000
G00 X2.8700 Y-18.3390
G01 Z-1.8000
G01 Z0
G00 Z2.0000
M05
G00 Z0.50


