(G-CODE GENERATED BY FLATCAM v8.994 - www.flatcam.org - Version Date: 2020/11/7)

(Name: Gerber_BoardOutlineLayer.GKO_cutout_cnc)
(Type: G-code from Geometry)
(Units: MM)

(Created on Wednesday, 08 June 2022 at 19:04)

(This preprocessor is used with a motion controller loaded with GRBL firmware.)
(It is configured to be compatible with almost any version of GRBL firmware.)

(TOOL DIAMETER: 1.0 mm)
(Feedrate_XY: 60.0 mm/min)
(Feedrate_Z: 60.0 mm/min)
(Feedrate rapids 1500.0 mm/min)

(Z_Cut: -1.8 mm)
(DepthPerCut: 0.30000000000000004 mm <=>6 passes)
(Z_Move: 2.0 mm)
(Z Start: None mm)
(Z End: 20.0 mm)
(X,Y End: None mm)
(Steps per circle: 64)
(Steps per circle: 64)
(Preprocessor Geometry: grbl_11)

(X range:   -0.7271 ...   66.7269  mm)
(Y range:  -23.7270 ...    0.7271  mm)

(Spindle Speed: 100.0 RPM)
G21
G90
G17
G94


G01 F60.00

M5             
G00 Z20.0000
G00 X0.0000 Y0.0000                
T1
M6
(MSG, Change to Tool Dia = 1.0000)
M0
G00 Z20.0000

M03 S100.0
G4 P1.0
G01 F60.00
G00 X-0.7271 Y-0.0000
G01 F60.00
G01 Z-0.3000
G01 F60.00
G01 X-0.7257 Y0.0419 F60.00
G01 X-0.7200 Y0.1005 F60.00
G01 X-0.7181 Y0.1128 F60.00
G01 X-0.7066 Y0.1706 F60.00
G01 X-0.7036 Y0.1827 F60.00
G01 X-0.6865 Y0.2390 F60.00
G01 X-0.6823 Y0.2508 F60.00
G01 X-0.6598 Y0.3052 F60.00
G01 X-0.6545 Y0.3164 F60.00
G01 X-0.6267 Y0.3684 F60.00
G01 X-0.6203 Y0.3791 F60.00
G01 X-0.5876 Y0.4280 F60.00
G01 X-0.5801 Y0.4380 F60.00
G01 X-0.5428 Y0.4835 F60.00
G01 X-0.5344 Y0.4928 F60.00
G01 X-0.4928 Y0.5344 F60.00
G01 X-0.4835 Y0.5428 F60.00
G01 X-0.4380 Y0.5801 F60.00
G01 X-0.4280 Y0.5876 F60.00
G01 X-0.3791 Y0.6203 F60.00
G01 X-0.3684 Y0.6267 F60.00
G01 X-0.3164 Y0.6545 F60.00
G01 X-0.3052 Y0.6598 F60.00
G01 X-0.2508 Y0.6823 F60.00
G01 X-0.2390 Y0.6865 F60.00
G01 X-0.1827 Y0.7036 F60.00
G01 X-0.1706 Y0.7066 F60.00
G01 X-0.1128 Y0.7181 F60.00
G01 X-0.1005 Y0.7200 F60.00
G01 X-0.0419 Y0.7257 F60.00
G01 X0.0000 Y0.7271 F60.00
G01 X65.9999 Y0.7271 F60.00
G01 X66.0418 Y0.7257 F60.00
G01 X66.1004 Y0.7200 F60.00
G01 X66.1127 Y0.7181 F60.00
G01 X66.1704 Y0.7066 F60.00
G01 X66.1825 Y0.7036 F60.00
G01 X66.2389 Y0.6865 F60.00
G01 X66.2506 Y0.6823 F60.00
G01 X66.3050 Y0.6598 F60.00
G01 X66.3163 Y0.6545 F60.00
G01 X66.3682 Y0.6267 F60.00
G01 X66.3789 Y0.6203 F60.00
G01 X66.4279 Y0.5876 F60.00
G01 X66.4379 Y0.5801 F60.00
G01 X66.4834 Y0.5428 F60.00
G01 X66.4926 Y0.5344 F60.00
G01 X66.5343 Y0.4928 F60.00
G01 X66.5427 Y0.4835 F60.00
G01 X66.5800 Y0.4380 F60.00
G01 X66.5874 Y0.4280 F60.00
G01 X66.6201 Y0.3791 F60.00
G01 X66.6266 Y0.3684 F60.00
G01 X66.6543 Y0.3164 F60.00
G01 X66.6596 Y0.3052 F60.00
G01 X66.6822 Y0.2508 F60.00
G01 X66.6864 Y0.2390 F60.00
G01 X66.7035 Y0.1827 F60.00
G01 X66.7065 Y0.1706 F60.00
G01 X66.7180 Y0.1128 F60.00
G01 X66.7198 Y0.1005 F60.00
G01 X66.7256 Y0.0419 F60.00
G01 X66.7269 Y-0.0000 F60.00
G01 X66.7269 Y-22.9999 F60.00
G01 X66.7256 Y-23.0418 F60.00
G01 X66.7198 Y-23.1004 F60.00
G01 X66.7180 Y-23.1128 F60.00
G01 X66.7065 Y-23.1705 F60.00
G01 X66.7035 Y-23.1826 F60.00
G01 X66.6864 Y-23.2390 F60.00
G01 X66.6822 Y-23.2507 F60.00
G01 X66.6596 Y-23.3051 F60.00
G01 X66.6543 Y-23.3164 F60.00
G01 X66.6266 Y-23.3683 F60.00
G01 X66.6201 Y-23.3790 F60.00
G01 X66.5874 Y-23.4280 F60.00
G01 X66.5800 Y-23.4380 F60.00
G01 X66.5427 Y-23.4835 F60.00
G01 X66.5343 Y-23.4927 F60.00
G01 X66.4926 Y-23.5344 F60.00
G01 X66.4834 Y-23.5427 F60.00
G01 X66.4379 Y-23.5801 F60.00
G01 X66.4279 Y-23.5875 F60.00
G01 X66.3789 Y-23.6202 F60.00
G01 X66.3682 Y-23.6266 F60.00
G01 X66.3163 Y-23.6544 F60.00
G01 X66.3050 Y-23.6597 F60.00
G01 X66.2506 Y-23.6823 F60.00
G01 X66.2389 Y-23.6865 F60.00
G01 X66.1825 Y-23.7036 F60.00
G01 X66.1704 Y-23.7066 F60.00
G01 X66.1127 Y-23.7181 F60.00
G01 X66.1004 Y-23.7199 F60.00
G01 X66.0418 Y-23.7257 F60.00
G01 X65.9999 Y-23.7270 F60.00
G01 X0.0000 Y-23.7270 F60.00
G01 X-0.0419 Y-23.7257 F60.00
G01 X-0.1005 Y-23.7199 F60.00
G01 X-0.1128 Y-23.7181 F60.00
G01 X-0.1706 Y-23.7066 F60.00
G01 X-0.1827 Y-23.7036 F60.00
G01 X-0.2390 Y-23.6865 F60.00
G01 X-0.2508 Y-23.6823 F60.00
G01 X-0.3052 Y-23.6597 F60.00
G01 X-0.3164 Y-23.6544 F60.00
G01 X-0.3684 Y-23.6266 F60.00
G01 X-0.3791 Y-23.6202 F60.00
G01 X-0.4280 Y-23.5875 F60.00
G01 X-0.4380 Y-23.5801 F60.00
G01 X-0.4835 Y-23.5427 F60.00
G01 X-0.4928 Y-23.5344 F60.00
G01 X-0.5344 Y-23.4927 F60.00
G01 X-0.5428 Y-23.4835 F60.00
G01 X-0.5801 Y-23.4380 F60.00
G01 X-0.5876 Y-23.4280 F60.00
G01 X-0.6203 Y-23.3790 F60.00
G01 X-0.6267 Y-23.3683 F60.00
G01 X-0.6545 Y-23.3164 F60.00
G01 X-0.6598 Y-23.3051 F60.00
G01 X-0.6823 Y-23.2507 F60.00
G01 X-0.6865 Y-23.2390 F60.00
G01 X-0.7036 Y-23.1826 F60.00
G01 X-0.7066 Y-23.1705 F60.00
G01 X-0.7181 Y-23.1128 F60.00
G01 X-0.7200 Y-23.1004 F60.00
G01 X-0.7257 Y-23.0418 F60.00
G01 X-0.7271 Y-22.9999 F60.00
G01 X-0.7271 Y-0.0000 F60.00
G00 Z2.0000
G00 X-0.7271 Y-0.0500
G01 F60.00
G01 Z-0.3000
G01 F60.00
G01 X-0.7271 Y-0.0000 F60.00
G01 X-0.7257 Y0.0419 F60.00
G01 X-0.7249 Y0.0499 F60.00
G01 X-0.7257 Y0.0419 F60.00
G01 X-0.7271 Y-0.0000 F60.00
G00 X-0.7271 Y-0.0000
G01 F60.00
G01 Z-0.6000
G01 F60.00
G01 X-0.7271 Y-22.9999 F60.00
G01 X-0.7257 Y-23.0418 F60.00
G01 X-0.7200 Y-23.1004 F60.00
G01 X-0.7181 Y-23.1128 F60.00
G01 X-0.7066 Y-23.1705 F60.00
G01 X-0.7036 Y-23.1826 F60.00
G01 X-0.6865 Y-23.2390 F60.00
G01 X-0.6823 Y-23.2507 F60.00
G01 X-0.6598 Y-23.3051 F60.00
G01 X-0.6545 Y-23.3164 F60.00
G01 X-0.6267 Y-23.3683 F60.00
G01 X-0.6203 Y-23.3790 F60.00
G01 X-0.5876 Y-23.4280 F60.00
G01 X-0.5801 Y-23.4380 F60.00
G01 X-0.5428 Y-23.4835 F60.00
G01 X-0.5344 Y-23.4927 F60.00
G01 X-0.4928 Y-23.5344 F60.00
G01 X-0.4835 Y-23.5427 F60.00
G01 X-0.4380 Y-23.5801 F60.00
G01 X-0.4280 Y-23.5875 F60.00
G01 X-0.3791 Y-23.6202 F60.00
G01 X-0.3684 Y-23.6266 F60.00
G01 X-0.3164 Y-23.6544 F60.00
G01 X-0.3052 Y-23.6597 F60.00
G01 X-0.2508 Y-23.6823 F60.00
G01 X-0.2390 Y-23.6865 F60.00
G01 X-0.1827 Y-23.7036 F60.00
G01 X-0.1706 Y-23.7066 F60.00
G01 X-0.1128 Y-23.7181 F60.00
G01 X-0.1005 Y-23.7199 F60.00
G01 X-0.0419 Y-23.7257 F60.00
G01 X0.0000 Y-23.7270 F60.00
G01 X65.9999 Y-23.7270 F60.00
G01 X66.0418 Y-23.7257 F60.00
G01 X66.1004 Y-23.7199 F60.00
G01 X66.1127 Y-23.7181 F60.00
G01 X66.1704 Y-23.7066 F60.00
G01 X66.1825 Y-23.7036 F60.00
G01 X66.2389 Y-23.6865 F60.00
G01 X66.2506 Y-23.6823 F60.00
G01 X66.3050 Y-23.6597 F60.00
G01 X66.3163 Y-23.6544 F60.00
G01 X66.3682 Y-23.6266 F60.00
G01 X66.3789 Y-23.6202 F60.00
G01 X66.4279 Y-23.5875 F60.00
G01 X66.4379 Y-23.5801 F60.00
G01 X66.4834 Y-23.5427 F60.00
G01 X66.4926 Y-23.5344 F60.00
G01 X66.5343 Y-23.4927 F60.00
G01 X66.5427 Y-23.4835 F60.00
G01 X66.5800 Y-23.4380 F60.00
G01 X66.5874 Y-23.4280 F60.00
G01 X66.6201 Y-23.3790 F60.00
G01 X66.6266 Y-23.3683 F60.00
G01 X66.6543 Y-23.3164 F60.00
G01 X66.6596 Y-23.3051 F60.00
G01 X66.6822 Y-23.2507 F60.00
G01 X66.6864 Y-23.2390 F60.00
G01 X66.7035 Y-23.1826 F60.00
G01 X66.7065 Y-23.1705 F60.00
G01 X66.7180 Y-23.1128 F60.00
G01 X66.7198 Y-23.1004 F60.00
G01 X66.7256 Y-23.0418 F60.00
G01 X66.7269 Y-22.9999 F60.00
G01 X66.7269 Y-0.0000 F60.00
G01 X66.7256 Y0.0419 F60.00
G01 X66.7198 Y0.1005 F60.00
G01 X66.7180 Y0.1128 F60.00
G01 X66.7065 Y0.1706 F60.00
G01 X66.7035 Y0.1827 F60.00
G01 X66.6864 Y0.2390 F60.00
G01 X66.6822 Y0.2508 F60.00
G01 X66.6596 Y0.3052 F60.00
G01 X66.6543 Y0.3164 F60.00
G01 X66.6266 Y0.3684 F60.00
G01 X66.6201 Y0.3791 F60.00
G01 X66.5874 Y0.4280 F60.00
G01 X66.5800 Y0.4380 F60.00
G01 X66.5427 Y0.4835 F60.00
G01 X66.5343 Y0.4928 F60.00
G01 X66.4926 Y0.5344 F60.00
G01 X66.4834 Y0.5428 F60.00
G01 X66.4379 Y0.5801 F60.00
G01 X66.4279 Y0.5876 F60.00
G01 X66.3789 Y0.6203 F60.00
G01 X66.3682 Y0.6267 F60.00
G01 X66.3163 Y0.6545 F60.00
G01 X66.3050 Y0.6598 F60.00
G01 X66.2506 Y0.6823 F60.00
G01 X66.2389 Y0.6865 F60.00
G01 X66.1825 Y0.7036 F60.00
G01 X66.1704 Y0.7066 F60.00
G01 X66.1127 Y0.7181 F60.00
G01 X66.1004 Y0.7200 F60.00
G01 X66.0418 Y0.7257 F60.00
G01 X65.9999 Y0.7271 F60.00
G01 X0.0000 Y0.7271 F60.00
G01 X-0.0419 Y0.7257 F60.00
G01 X-0.1005 Y0.7200 F60.00
G01 X-0.1128 Y0.7181 F60.00
G01 X-0.1706 Y0.7066 F60.00
G01 X-0.1827 Y0.7036 F60.00
G01 X-0.2390 Y0.6865 F60.00
G01 X-0.2508 Y0.6823 F60.00
G01 X-0.3052 Y0.6598 F60.00
G01 X-0.3164 Y0.6545 F60.00
G01 X-0.3684 Y0.6267 F60.00
G01 X-0.3791 Y0.6203 F60.00
G01 X-0.4280 Y0.5876 F60.00
G01 X-0.4380 Y0.5801 F60.00
G01 X-0.4835 Y0.5428 F60.00
G01 X-0.4928 Y0.5344 F60.00
G01 X-0.5344 Y0.4928 F60.00
G01 X-0.5428 Y0.4835 F60.00
G01 X-0.5801 Y0.4380 F60.00
G01 X-0.5876 Y0.4280 F60.00
G01 X-0.6203 Y0.3791 F60.00
G01 X-0.6267 Y0.3684 F60.00
G01 X-0.6545 Y0.3164 F60.00
G01 X-0.6598 Y0.3052 F60.00
G01 X-0.6823 Y0.2508 F60.00
G01 X-0.6865 Y0.2390 F60.00
G01 X-0.7036 Y0.1827 F60.00
G01 X-0.7066 Y0.1706 F60.00
G01 X-0.7181 Y0.1128 F60.00
G01 X-0.7200 Y0.1005 F60.00
G01 X-0.7257 Y0.0419 F60.00
G01 X-0.7271 Y-0.0000 F60.00
G00 Z2.0000
G00 X-0.7249 Y0.0499
G01 F60.00
G01 Z-0.6000
G01 F60.00
G01 X-0.7257 Y0.0419 F60.00
G01 X-0.7271 Y-0.0000 F60.00
G01 X-0.7271 Y-0.0500 F60.00
G01 X-0.7271 Y-0.0000 F60.00
G00 X-0.7271 Y-0.0000
G01 F60.00
G01 Z-0.9000
G01 F60.00
G01 X-0.7257 Y0.0419 F60.00
G01 X-0.7200 Y0.1005 F60.00
G01 X-0.7181 Y0.1128 F60.00
G01 X-0.7066 Y0.1706 F60.00
G01 X-0.7036 Y0.1827 F60.00
G01 X-0.6865 Y0.2390 F60.00
G01 X-0.6823 Y0.2508 F60.00
G01 X-0.6598 Y0.3052 F60.00
G01 X-0.6545 Y0.3164 F60.00
G01 X-0.6267 Y0.3684 F60.00
G01 X-0.6203 Y0.3791 F60.00
G01 X-0.5876 Y0.4280 F60.00
G01 X-0.5801 Y0.4380 F60.00
G01 X-0.5428 Y0.4835 F60.00
G01 X-0.5344 Y0.4928 F60.00
G01 X-0.4928 Y0.5344 F60.00
G01 X-0.4835 Y0.5428 F60.00
G01 X-0.4380 Y0.5801 F60.00
G01 X-0.4280 Y0.5876 F60.00
G01 X-0.3791 Y0.6203 F60.00
G01 X-0.3684 Y0.6267 F60.00
G01 X-0.3164 Y0.6545 F60.00
G01 X-0.3052 Y0.6598 F60.00
G01 X-0.2508 Y0.6823 F60.00
G01 X-0.2390 Y0.6865 F60.00
G01 X-0.1827 Y0.7036 F60.00
G01 X-0.1706 Y0.7066 F60.00
G01 X-0.1128 Y0.7181 F60.00
G01 X-0.1005 Y0.7200 F60.00
G01 X-0.0419 Y0.7257 F60.00
G01 X0.0000 Y0.7271 F60.00
G01 X65.9999 Y0.7271 F60.00
G01 X66.0418 Y0.7257 F60.00
G01 X66.1004 Y0.7200 F60.00
G01 X66.1127 Y0.7181 F60.00
G01 X66.1704 Y0.7066 F60.00
G01 X66.1825 Y0.7036 F60.00
G01 X66.2389 Y0.6865 F60.00
G01 X66.2506 Y0.6823 F60.00
G01 X66.3050 Y0.6598 F60.00
G01 X66.3163 Y0.6545 F60.00
G01 X66.3682 Y0.6267 F60.00
G01 X66.3789 Y0.6203 F60.00
G01 X66.4279 Y0.5876 F60.00
G01 X66.4379 Y0.5801 F60.00
G01 X66.4834 Y0.5428 F60.00
G01 X66.4926 Y0.5344 F60.00
G01 X66.5343 Y0.4928 F60.00
G01 X66.5427 Y0.4835 F60.00
G01 X66.5800 Y0.4380 F60.00
G01 X66.5874 Y0.4280 F60.00
G01 X66.6201 Y0.3791 F60.00
G01 X66.6266 Y0.3684 F60.00
G01 X66.6543 Y0.3164 F60.00
G01 X66.6596 Y0.3052 F60.00
G01 X66.6822 Y0.2508 F60.00
G01 X66.6864 Y0.2390 F60.00
G01 X66.7035 Y0.1827 F60.00
G01 X66.7065 Y0.1706 F60.00
G01 X66.7180 Y0.1128 F60.00
G01 X66.7198 Y0.1005 F60.00
G01 X66.7256 Y0.0419 F60.00
G01 X66.7269 Y-0.0000 F60.00
G01 X66.7269 Y-22.9999 F60.00
G01 X66.7256 Y-23.0418 F60.00
G01 X66.7198 Y-23.1004 F60.00
G01 X66.7180 Y-23.1128 F60.00
G01 X66.7065 Y-23.1705 F60.00
G01 X66.7035 Y-23.1826 F60.00
G01 X66.6864 Y-23.2390 F60.00
G01 X66.6822 Y-23.2507 F60.00
G01 X66.6596 Y-23.3051 F60.00
G01 X66.6543 Y-23.3164 F60.00
G01 X66.6266 Y-23.3683 F60.00
G01 X66.6201 Y-23.3790 F60.00
G01 X66.5874 Y-23.4280 F60.00
G01 X66.5800 Y-23.4380 F60.00
G01 X66.5427 Y-23.4835 F60.00
G01 X66.5343 Y-23.4927 F60.00
G01 X66.4926 Y-23.5344 F60.00
G01 X66.4834 Y-23.5427 F60.00
G01 X66.4379 Y-23.5801 F60.00
G01 X66.4279 Y-23.5875 F60.00
G01 X66.3789 Y-23.6202 F60.00
G01 X66.3682 Y-23.6266 F60.00
G01 X66.3163 Y-23.6544 F60.00
G01 X66.3050 Y-23.6597 F60.00
G01 X66.2506 Y-23.6823 F60.00
G01 X66.2389 Y-23.6865 F60.00
G01 X66.1825 Y-23.7036 F60.00
G01 X66.1704 Y-23.7066 F60.00
G01 X66.1127 Y-23.7181 F60.00
G01 X66.1004 Y-23.7199 F60.00
G01 X66.0418 Y-23.7257 F60.00
G01 X65.9999 Y-23.7270 F60.00
G01 X0.0000 Y-23.7270 F60.00
G01 X-0.0419 Y-23.7257 F60.00
G01 X-0.1005 Y-23.7199 F60.00
G01 X-0.1128 Y-23.7181 F60.00
G01 X-0.1706 Y-23.7066 F60.00
G01 X-0.1827 Y-23.7036 F60.00
G01 X-0.2390 Y-23.6865 F60.00
G01 X-0.2508 Y-23.6823 F60.00
G01 X-0.3052 Y-23.6597 F60.00
G01 X-0.3164 Y-23.6544 F60.00
G01 X-0.3684 Y-23.6266 F60.00
G01 X-0.3791 Y-23.6202 F60.00
G01 X-0.4280 Y-23.5875 F60.00
G01 X-0.4380 Y-23.5801 F60.00
G01 X-0.4835 Y-23.5427 F60.00
G01 X-0.4928 Y-23.5344 F60.00
G01 X-0.5344 Y-23.4927 F60.00
G01 X-0.5428 Y-23.4835 F60.00
G01 X-0.5801 Y-23.4380 F60.00
G01 X-0.5876 Y-23.4280 F60.00
G01 X-0.6203 Y-23.3790 F60.00
G01 X-0.6267 Y-23.3683 F60.00
G01 X-0.6545 Y-23.3164 F60.00
G01 X-0.6598 Y-23.3051 F60.00
G01 X-0.6823 Y-23.2507 F60.00
G01 X-0.6865 Y-23.2390 F60.00
G01 X-0.7036 Y-23.1826 F60.00
G01 X-0.7066 Y-23.1705 F60.00
G01 X-0.7181 Y-23.1128 F60.00
G01 X-0.7200 Y-23.1004 F60.00
G01 X-0.7257 Y-23.0418 F60.00
G01 X-0.7271 Y-22.9999 F60.00
G01 X-0.7271 Y-0.0000 F60.00
G00 Z2.0000
G00 X-0.7271 Y-0.0500
G01 F60.00
G01 Z-0.9000
G01 F60.00
G01 X-0.7271 Y-0.0000 F60.00
G01 X-0.7257 Y0.0419 F60.00
G01 X-0.7249 Y0.0499 F60.00
G01 X-0.7257 Y0.0419 F60.00
G01 X-0.7271 Y-0.0000 F60.00
G00 X-0.7271 Y-0.0000
G01 F60.00
G01 Z-1.2000
G01 F60.00
G01 X-0.7271 Y-22.9999 F60.00
G01 X-0.7257 Y-23.0418 F60.00
G01 X-0.7200 Y-23.1004 F60.00
G01 X-0.7181 Y-23.1128 F60.00
G01 X-0.7066 Y-23.1705 F60.00
G01 X-0.7036 Y-23.1826 F60.00
G01 X-0.6865 Y-23.2390 F60.00
G01 X-0.6823 Y-23.2507 F60.00
G01 X-0.6598 Y-23.3051 F60.00
G01 X-0.6545 Y-23.3164 F60.00
G01 X-0.6267 Y-23.3683 F60.00
G01 X-0.6203 Y-23.3790 F60.00
G01 X-0.5876 Y-23.4280 F60.00
G01 X-0.5801 Y-23.4380 F60.00
G01 X-0.5428 Y-23.4835 F60.00
G01 X-0.5344 Y-23.4927 F60.00
G01 X-0.4928 Y-23.5344 F60.00
G01 X-0.4835 Y-23.5427 F60.00
G01 X-0.4380 Y-23.5801 F60.00
G01 X-0.4280 Y-23.5875 F60.00
G01 X-0.3791 Y-23.6202 F60.00
G01 X-0.3684 Y-23.6266 F60.00
G01 X-0.3164 Y-23.6544 F60.00
G01 X-0.3052 Y-23.6597 F60.00
G01 X-0.2508 Y-23.6823 F60.00
G01 X-0.2390 Y-23.6865 F60.00
G01 X-0.1827 Y-23.7036 F60.00
G01 X-0.1706 Y-23.7066 F60.00
G01 X-0.1128 Y-23.7181 F60.00
G01 X-0.1005 Y-23.7199 F60.00
G01 X-0.0419 Y-23.7257 F60.00
G01 X0.0000 Y-23.7270 F60.00
G01 X65.9999 Y-23.7270 F60.00
G01 X66.0418 Y-23.7257 F60.00
G01 X66.1004 Y-23.7199 F60.00
G01 X66.1127 Y-23.7181 F60.00
G01 X66.1704 Y-23.7066 F60.00
G01 X66.1825 Y-23.7036 F60.00
G01 X66.2389 Y-23.6865 F60.00
G01 X66.2506 Y-23.6823 F60.00
G01 X66.3050 Y-23.6597 F60.00
G01 X66.3163 Y-23.6544 F60.00
G01 X66.3682 Y-23.6266 F60.00
G01 X66.3789 Y-23.6202 F60.00
G01 X66.4279 Y-23.5875 F60.00
G01 X66.4379 Y-23.5801 F60.00
G01 X66.4834 Y-23.5427 F60.00
G01 X66.4926 Y-23.5344 F60.00
G01 X66.5343 Y-23.4927 F60.00
G01 X66.5427 Y-23.4835 F60.00
G01 X66.5800 Y-23.4380 F60.00
G01 X66.5874 Y-23.4280 F60.00
G01 X66.6201 Y-23.3790 F60.00
G01 X66.6266 Y-23.3683 F60.00
G01 X66.6543 Y-23.3164 F60.00
G01 X66.6596 Y-23.3051 F60.00
G01 X66.6822 Y-23.2507 F60.00
G01 X66.6864 Y-23.2390 F60.00
G01 X66.7035 Y-23.1826 F60.00
G01 X66.7065 Y-23.1705 F60.00
G01 X66.7180 Y-23.1128 F60.00
G01 X66.7198 Y-23.1004 F60.00
G01 X66.7256 Y-23.0418 F60.00
G01 X66.7269 Y-22.9999 F60.00
G01 X66.7269 Y-0.0000 F60.00
G01 X66.7256 Y0.0419 F60.00
G01 X66.7198 Y0.1005 F60.00
G01 X66.7180 Y0.1128 F60.00
G01 X66.7065 Y0.1706 F60.00
G01 X66.7035 Y0.1827 F60.00
G01 X66.6864 Y0.2390 F60.00
G01 X66.6822 Y0.2508 F60.00
G01 X66.6596 Y0.3052 F60.00
G01 X66.6543 Y0.3164 F60.00
G01 X66.6266 Y0.3684 F60.00
G01 X66.6201 Y0.3791 F60.00
G01 X66.5874 Y0.4280 F60.00
G01 X66.5800 Y0.4380 F60.00
G01 X66.5427 Y0.4835 F60.00
G01 X66.5343 Y0.4928 F60.00
G01 X66.4926 Y0.5344 F60.00
G01 X66.4834 Y0.5428 F60.00
G01 X66.4379 Y0.5801 F60.00
G01 X66.4279 Y0.5876 F60.00
G01 X66.3789 Y0.6203 F60.00
G01 X66.3682 Y0.6267 F60.00
G01 X66.3163 Y0.6545 F60.00
G01 X66.3050 Y0.6598 F60.00
G01 X66.2506 Y0.6823 F60.00
G01 X66.2389 Y0.6865 F60.00
G01 X66.1825 Y0.7036 F60.00
G01 X66.1704 Y0.7066 F60.00
G01 X66.1127 Y0.7181 F60.00
G01 X66.1004 Y0.7200 F60.00
G01 X66.0418 Y0.7257 F60.00
G01 X65.9999 Y0.7271 F60.00
G01 X0.0000 Y0.7271 F60.00
G01 X-0.0419 Y0.7257 F60.00
G01 X-0.1005 Y0.7200 F60.00
G01 X-0.1128 Y0.7181 F60.00
G01 X-0.1706 Y0.7066 F60.00
G01 X-0.1827 Y0.7036 F60.00
G01 X-0.2390 Y0.6865 F60.00
G01 X-0.2508 Y0.6823 F60.00
G01 X-0.3052 Y0.6598 F60.00
G01 X-0.3164 Y0.6545 F60.00
G01 X-0.3684 Y0.6267 F60.00
G01 X-0.3791 Y0.6203 F60.00
G01 X-0.4280 Y0.5876 F60.00
G01 X-0.4380 Y0.5801 F60.00
G01 X-0.4835 Y0.5428 F60.00
G01 X-0.4928 Y0.5344 F60.00
G01 X-0.5344 Y0.4928 F60.00
G01 X-0.5428 Y0.4835 F60.00
G01 X-0.5801 Y0.4380 F60.00
G01 X-0.5876 Y0.4280 F60.00
G01 X-0.6203 Y0.3791 F60.00
G01 X-0.6267 Y0.3684 F60.00
G01 X-0.6545 Y0.3164 F60.00
G01 X-0.6598 Y0.3052 F60.00
G01 X-0.6823 Y0.2508 F60.00
G01 X-0.6865 Y0.2390 F60.00
G01 X-0.7036 Y0.1827 F60.00
G01 X-0.7066 Y0.1706 F60.00
G01 X-0.7181 Y0.1128 F60.00
G01 X-0.7200 Y0.1005 F60.00
G01 X-0.7257 Y0.0419 F60.00
G01 X-0.7271 Y-0.0000 F60.00
G00 Z2.0000
G00 X-0.7249 Y0.0499
G01 F60.00
G01 Z-1.2000
G01 F60.00
G01 X-0.7257 Y0.0419 F60.00
G01 X-0.7271 Y-0.0000 F60.00
G01 X-0.7271 Y-0.0500 F60.00
G01 X-0.7271 Y-0.0000 F60.00
G00 X-0.7271 Y-0.0000
G01 F60.00
G01 Z-1.5000
G01 F60.00
G01 X-0.7257 Y0.0419 F60.00
G01 X-0.7200 Y0.1005 F60.00
G01 X-0.7181 Y0.1128 F60.00
G01 X-0.7066 Y0.1706 F60.00
G01 X-0.7036 Y0.1827 F60.00
G01 X-0.6865 Y0.2390 F60.00
G01 X-0.6823 Y0.2508 F60.00
G01 X-0.6598 Y0.3052 F60.00
G01 X-0.6545 Y0.3164 F60.00
G01 X-0.6267 Y0.3684 F60.00
G01 X-0.6203 Y0.3791 F60.00
G01 X-0.5876 Y0.4280 F60.00
G01 X-0.5801 Y0.4380 F60.00
G01 X-0.5428 Y0.4835 F60.00
G01 X-0.5344 Y0.4928 F60.00
G01 X-0.4928 Y0.5344 F60.00
G01 X-0.4835 Y0.5428 F60.00
G01 X-0.4380 Y0.5801 F60.00
G01 X-0.4280 Y0.5876 F60.00
G01 X-0.3791 Y0.6203 F60.00
G01 X-0.3684 Y0.6267 F60.00
G01 X-0.3164 Y0.6545 F60.00
G01 X-0.3052 Y0.6598 F60.00
G01 X-0.2508 Y0.6823 F60.00
G01 X-0.2390 Y0.6865 F60.00
G01 X-0.1827 Y0.7036 F60.00
G01 X-0.1706 Y0.7066 F60.00
G01 X-0.1128 Y0.7181 F60.00
G01 X-0.1005 Y0.7200 F60.00
G01 X-0.0419 Y0.7257 F60.00
G01 X0.0000 Y0.7271 F60.00
G01 X65.9999 Y0.7271 F60.00
G01 X66.0418 Y0.7257 F60.00
G01 X66.1004 Y0.7200 F60.00
G01 X66.1127 Y0.7181 F60.00
G01 X66.1704 Y0.7066 F60.00
G01 X66.1825 Y0.7036 F60.00
G01 X66.2389 Y0.6865 F60.00
G01 X66.2506 Y0.6823 F60.00
G01 X66.3050 Y0.6598 F60.00
G01 X66.3163 Y0.6545 F60.00
G01 X66.3682 Y0.6267 F60.00
G01 X66.3789 Y0.6203 F60.00
G01 X66.4279 Y0.5876 F60.00
G01 X66.4379 Y0.5801 F60.00
G01 X66.4834 Y0.5428 F60.00
G01 X66.4926 Y0.5344 F60.00
G01 X66.5343 Y0.4928 F60.00
G01 X66.5427 Y0.4835 F60.00
G01 X66.5800 Y0.4380 F60.00
G01 X66.5874 Y0.4280 F60.00
G01 X66.6201 Y0.3791 F60.00
G01 X66.6266 Y0.3684 F60.00
G01 X66.6543 Y0.3164 F60.00
G01 X66.6596 Y0.3052 F60.00
G01 X66.6822 Y0.2508 F60.00
G01 X66.6864 Y0.2390 F60.00
G01 X66.7035 Y0.1827 F60.00
G01 X66.7065 Y0.1706 F60.00
G01 X66.7180 Y0.1128 F60.00
G01 X66.7198 Y0.1005 F60.00
G01 X66.7256 Y0.0419 F60.00
G01 X66.7269 Y-0.0000 F60.00
G01 X66.7269 Y-22.9999 F60.00
G01 X66.7256 Y-23.0418 F60.00
G01 X66.7198 Y-23.1004 F60.00
G01 X66.7180 Y-23.1128 F60.00
G01 X66.7065 Y-23.1705 F60.00
G01 X66.7035 Y-23.1826 F60.00
G01 X66.6864 Y-23.2390 F60.00
G01 X66.6822 Y-23.2507 F60.00
G01 X66.6596 Y-23.3051 F60.00
G01 X66.6543 Y-23.3164 F60.00
G01 X66.6266 Y-23.3683 F60.00
G01 X66.6201 Y-23.3790 F60.00
G01 X66.5874 Y-23.4280 F60.00
G01 X66.5800 Y-23.4380 F60.00
G01 X66.5427 Y-23.4835 F60.00
G01 X66.5343 Y-23.4927 F60.00
G01 X66.4926 Y-23.5344 F60.00
G01 X66.4834 Y-23.5427 F60.00
G01 X66.4379 Y-23.5801 F60.00
G01 X66.4279 Y-23.5875 F60.00
G01 X66.3789 Y-23.6202 F60.00
G01 X66.3682 Y-23.6266 F60.00
G01 X66.3163 Y-23.6544 F60.00
G01 X66.3050 Y-23.6597 F60.00
G01 X66.2506 Y-23.6823 F60.00
G01 X66.2389 Y-23.6865 F60.00
G01 X66.1825 Y-23.7036 F60.00
G01 X66.1704 Y-23.7066 F60.00
G01 X66.1127 Y-23.7181 F60.00
G01 X66.1004 Y-23.7199 F60.00
G01 X66.0418 Y-23.7257 F60.00
G01 X65.9999 Y-23.7270 F60.00
G01 X0.0000 Y-23.7270 F60.00
G01 X-0.0419 Y-23.7257 F60.00
G01 X-0.1005 Y-23.7199 F60.00
G01 X-0.1128 Y-23.7181 F60.00
G01 X-0.1706 Y-23.7066 F60.00
G01 X-0.1827 Y-23.7036 F60.00
G01 X-0.2390 Y-23.6865 F60.00
G01 X-0.2508 Y-23.6823 F60.00
G01 X-0.3052 Y-23.6597 F60.00
G01 X-0.3164 Y-23.6544 F60.00
G01 X-0.3684 Y-23.6266 F60.00
G01 X-0.3791 Y-23.6202 F60.00
G01 X-0.4280 Y-23.5875 F60.00
G01 X-0.4380 Y-23.5801 F60.00
G01 X-0.4835 Y-23.5427 F60.00
G01 X-0.4928 Y-23.5344 F60.00
G01 X-0.5344 Y-23.4927 F60.00
G01 X-0.5428 Y-23.4835 F60.00
G01 X-0.5801 Y-23.4380 F60.00
G01 X-0.5876 Y-23.4280 F60.00
G01 X-0.6203 Y-23.3790 F60.00
G01 X-0.6267 Y-23.3683 F60.00
G01 X-0.6545 Y-23.3164 F60.00
G01 X-0.6598 Y-23.3051 F60.00
G01 X-0.6823 Y-23.2507 F60.00
G01 X-0.6865 Y-23.2390 F60.00
G01 X-0.7036 Y-23.1826 F60.00
G01 X-0.7066 Y-23.1705 F60.00
G01 X-0.7181 Y-23.1128 F60.00
G01 X-0.7200 Y-23.1004 F60.00
G01 X-0.7257 Y-23.0418 F60.00
G01 X-0.7271 Y-22.9999 F60.00
G01 X-0.7271 Y-0.0000 F60.00
G00 Z2.0000
G00 X-0.7271 Y-0.0500
G01 F60.00
G01 Z-1.5000
G01 F60.00
G01 X-0.7271 Y-0.0000 F60.00
G01 X-0.7257 Y0.0419 F60.00
G01 X-0.7249 Y0.0499 F60.00
G01 X-0.7257 Y0.0419 F60.00
G01 X-0.7271 Y-0.0000 F60.00
G00 X-0.7271 Y-0.0000
G01 F60.00
G01 Z-1.8000
G01 F60.00
G01 X-0.7271 Y-22.9999 F60.00
G01 X-0.7257 Y-23.0418 F60.00
G01 X-0.7200 Y-23.1004 F60.00
G01 X-0.7181 Y-23.1128 F60.00
G01 X-0.7066 Y-23.1705 F60.00
G01 X-0.7036 Y-23.1826 F60.00
G01 X-0.6865 Y-23.2390 F60.00
G01 X-0.6823 Y-23.2507 F60.00
G01 X-0.6598 Y-23.3051 F60.00
G01 X-0.6545 Y-23.3164 F60.00
G01 X-0.6267 Y-23.3683 F60.00
G01 X-0.6203 Y-23.3790 F60.00
G01 X-0.5876 Y-23.4280 F60.00
G01 X-0.5801 Y-23.4380 F60.00
G01 X-0.5428 Y-23.4835 F60.00
G01 X-0.5344 Y-23.4927 F60.00
G01 X-0.4928 Y-23.5344 F60.00
G01 X-0.4835 Y-23.5427 F60.00
G01 X-0.4380 Y-23.5801 F60.00
G01 X-0.4280 Y-23.5875 F60.00
G01 X-0.3791 Y-23.6202 F60.00
G01 X-0.3684 Y-23.6266 F60.00
G01 X-0.3164 Y-23.6544 F60.00
G01 X-0.3052 Y-23.6597 F60.00
G01 X-0.2508 Y-23.6823 F60.00
G01 X-0.2390 Y-23.6865 F60.00
G01 X-0.1827 Y-23.7036 F60.00
G01 X-0.1706 Y-23.7066 F60.00
G01 X-0.1128 Y-23.7181 F60.00
G01 X-0.1005 Y-23.7199 F60.00
G01 X-0.0419 Y-23.7257 F60.00
G01 X0.0000 Y-23.7270 F60.00
G01 X65.9999 Y-23.7270 F60.00
G01 X66.0418 Y-23.7257 F60.00
G01 X66.1004 Y-23.7199 F60.00
G01 X66.1127 Y-23.7181 F60.00
G01 X66.1704 Y-23.7066 F60.00
G01 X66.1825 Y-23.7036 F60.00
G01 X66.2389 Y-23.6865 F60.00
G01 X66.2506 Y-23.6823 F60.00
G01 X66.3050 Y-23.6597 F60.00
G01 X66.3163 Y-23.6544 F60.00
G01 X66.3682 Y-23.6266 F60.00
G01 X66.3789 Y-23.6202 F60.00
G01 X66.4279 Y-23.5875 F60.00
G01 X66.4379 Y-23.5801 F60.00
G01 X66.4834 Y-23.5427 F60.00
G01 X66.4926 Y-23.5344 F60.00
G01 X66.5343 Y-23.4927 F60.00
G01 X66.5427 Y-23.4835 F60.00
G01 X66.5800 Y-23.4380 F60.00
G01 X66.5874 Y-23.4280 F60.00
G01 X66.6201 Y-23.3790 F60.00
G01 X66.6266 Y-23.3683 F60.00
G01 X66.6543 Y-23.3164 F60.00
G01 X66.6596 Y-23.3051 F60.00
G01 X66.6822 Y-23.2507 F60.00
G01 X66.6864 Y-23.2390 F60.00
G01 X66.7035 Y-23.1826 F60.00
G01 X66.7065 Y-23.1705 F60.00
G01 X66.7180 Y-23.1128 F60.00
G01 X66.7198 Y-23.1004 F60.00
G01 X66.7256 Y-23.0418 F60.00
G01 X66.7269 Y-22.9999 F60.00
G01 X66.7269 Y-0.0000 F60.00
G01 X66.7256 Y0.0419 F60.00
G01 X66.7198 Y0.1005 F60.00
G01 X66.7180 Y0.1128 F60.00
G01 X66.7065 Y0.1706 F60.00
G01 X66.7035 Y0.1827 F60.00
G01 X66.6864 Y0.2390 F60.00
G01 X66.6822 Y0.2508 F60.00
G01 X66.6596 Y0.3052 F60.00
G01 X66.6543 Y0.3164 F60.00
G01 X66.6266 Y0.3684 F60.00
G01 X66.6201 Y0.3791 F60.00
G01 X66.5874 Y0.4280 F60.00
G01 X66.5800 Y0.4380 F60.00
G01 X66.5427 Y0.4835 F60.00
G01 X66.5343 Y0.4928 F60.00
G01 X66.4926 Y0.5344 F60.00
G01 X66.4834 Y0.5428 F60.00
G01 X66.4379 Y0.5801 F60.00
G01 X66.4279 Y0.5876 F60.00
G01 X66.3789 Y0.6203 F60.00
G01 X66.3682 Y0.6267 F60.00
G01 X66.3163 Y0.6545 F60.00
G01 X66.3050 Y0.6598 F60.00
G01 X66.2506 Y0.6823 F60.00
G01 X66.2389 Y0.6865 F60.00
G01 X66.1825 Y0.7036 F60.00
G01 X66.1704 Y0.7066 F60.00
G01 X66.1127 Y0.7181 F60.00
G01 X66.1004 Y0.7200 F60.00
G01 X66.0418 Y0.7257 F60.00
G01 X65.9999 Y0.7271 F60.00
G01 X0.0000 Y0.7271 F60.00
G01 X-0.0419 Y0.7257 F60.00
G01 X-0.1005 Y0.7200 F60.00
G01 X-0.1128 Y0.7181 F60.00
G01 X-0.1706 Y0.7066 F60.00
G01 X-0.1827 Y0.7036 F60.00
G01 X-0.2390 Y0.6865 F60.00
G01 X-0.2508 Y0.6823 F60.00
G01 X-0.3052 Y0.6598 F60.00
G01 X-0.3164 Y0.6545 F60.00
G01 X-0.3684 Y0.6267 F60.00
G01 X-0.3791 Y0.6203 F60.00
G01 X-0.4280 Y0.5876 F60.00
G01 X-0.4380 Y0.5801 F60.00
G01 X-0.4835 Y0.5428 F60.00
G01 X-0.4928 Y0.5344 F60.00
G01 X-0.5344 Y0.4928 F60.00
G01 X-0.5428 Y0.4835 F60.00
G01 X-0.5801 Y0.4380 F60.00
G01 X-0.5876 Y0.4280 F60.00
G01 X-0.6203 Y0.3791 F60.00
G01 X-0.6267 Y0.3684 F60.00
G01 X-0.6545 Y0.3164 F60.00
G01 X-0.6598 Y0.3052 F60.00
G01 X-0.6823 Y0.2508 F60.00
G01 X-0.6865 Y0.2390 F60.00
G01 X-0.7036 Y0.1827 F60.00
G01 X-0.7066 Y0.1706 F60.00
G01 X-0.7181 Y0.1128 F60.00
G01 X-0.7200 Y0.1005 F60.00
G01 X-0.7257 Y0.0419 F60.00
G01 X-0.7271 Y-0.0000 F60.00
G00 Z2.0000
G00 X-0.7249 Y0.0499
G01 F60.00
G01 Z-1.8000
G01 F60.00
G01 X-0.7257 Y0.0419 F60.00
G01 X-0.7271 Y-0.0000 F60.00
G01 X-0.7271 Y-0.0500 F60.00
G01 X-0.7271 Y-0.0000 F60.00
G00 Z2.0000
M05
G00 Z2.0000
G00 Z20.00


