(G-CODE GENERATED BY FLATCAM v8.994 - www.flatcam.org - Version Date: 2020/11/7)

(Name: Drill_PTH_Through.DRL_edit_cnc)
(Type: G-code from Geometry)
(Units: MM)

(Created on Sunday, 10 July 2022 at 00:45)

(This preprocessor is used with a motion controller loaded with GRBL firmware.)
(It is configured to be compatible with almost any version of GRBL firmware.)


(TOOLS DIAMETER: )
(Tool: 1 -> Dia: 0.5)
(Tool: 2 -> Dia: 0.9)
(Tool: 3 -> Dia: 1.1)
(Tool: 4 -> Dia: 2.3)

(FEEDRATE Z: )
(Tool: 1 -> Feedrate: 100.0)
(Tool: 2 -> Feedrate: 100.0)
(Tool: 3 -> Feedrate: 100.0)
(Tool: 4 -> Feedrate: 100.0)

(FEEDRATE RAPIDS: )
(Tool: 1 -> Feedrate Rapids: 1500)
(Tool: 2 -> Feedrate Rapids: 1500)
(Tool: 3 -> Feedrate Rapids: 1500)
(Tool: 4 -> Feedrate Rapids: 1500)

(Z_CUT: )
(Tool: 1 -> Z_Cut: -1.9000000000000001)
(Tool: 2 -> Z_Cut: -1.9000000000000001)
(Tool: 3 -> Z_Cut: -1.9000000000000001)
(Tool: 4 -> Z_Cut: -1.9000000000000001)

(Tools Offset: )
(Tool: 1 -> Offset Z: 0.0)
(Tool: 2 -> Offset Z: 0.0)
(Tool: 3 -> Offset Z: 0.0)
(Tool: 4 -> Offset Z: 0.0)

(Z_MOVE: )
(Tool: 1 -> Z_Move: 2)
(Tool: 2 -> Z_Move: 2)
(Tool: 3 -> Z_Move: 2)
(Tool: 4 -> Z_Move: 2)

(Z Toolchange: 20.0 mm)
(X,Y Toolchange: 0.0000, 0.0000 mm)
(Z Start: None mm)
(Z End: 0.9999999999999999 mm)
(X,Y End: 0.0000, 0.0000 mm)
(Steps per circle: 64)
(Steps per circle: 64)
(Preprocessor Excellon: grbl_11)

(X range:    0.9070 ...   76.8600  mm)
(Y range:  -30.5220 ...   -0.3530  mm)

(Spindle Speed: 100 RPM)
G21
G90
G17
G94


G01 F100.00

M5             
G00 Z20.0000
G00 X0.0000 Y0.0000                
T1
M6
(MSG, Change to Tool Dia = 0.5000 ||| Total drills for tool T1 = 9)
M0
G00 Z20.0000

G01 F100.00
M03 S100
G00 X64.7200 Y-8.5250
G01 Z-1.9000
G01 Z0
G00 Z2.0000
G00 X66.6280 Y-10.5770
G01 Z-1.9000
G01 Z0
G00 Z2.0000
G00 X70.4320 Y-13.0190
G01 Z-1.9000
G01 Z0
G00 Z2.0000
G00 X76.6100 Y-0.6030
G01 Z-1.9000
G01 Z0
G00 Z2.0000
G00 X59.6070 Y-5.4570
G01 Z-1.9000
G01 Z0
G00 Z2.0000
G00 X47.3870 Y-9.5320
G01 Z-1.9000
G01 Z0
G00 Z2.0000
G00 X46.2950 Y-11.2200
G01 Z-1.9000
G01 Z0
G00 Z2.0000
G00 X38.5750 Y-10.9850
G01 Z-1.9000
G01 Z0
G00 Z2.0000
G00 X55.9500 Y-20.2040
G01 Z-1.9000
G01 Z0
G00 Z2.0000
G01 F100.00

M5             
G00 Z20.0000
G00 X0.0000 Y0.0000                
T2
M6
(MSG, Change to Tool Dia = 0.9000 ||| Total drills for tool T2 = 79)
M0
G00 Z20.0000

G01 F100.00
M03 S100
G00 X5.8670 Y-10.2870
G01 Z-1.9000
G01 Z0
G00 Z2.0000
G00 X5.8670 Y-8.1790
G01 Z-1.9000
G01 Z0
G00 Z2.0000
G00 X8.3570 Y-8.1790
G01 Z-1.9000
G01 Z0
G00 Z2.0000
G00 X13.0000 Y-7.6910
G01 Z-1.9000
G01 Z0
G00 Z2.0000
G00 X19.0000 Y-1.7600
G01 Z-1.9000
G01 Z0
G00 Z2.0000
G00 X21.5400 Y-1.7600
G01 Z-1.9000
G01 Z0
G00 Z2.0000
G00 X24.0800 Y-1.7600
G01 Z-1.9000
G01 Z0
G00 Z2.0000
G00 X26.6200 Y-1.7600
G01 Z-1.9000
G01 Z0
G00 Z2.0000
G00 X29.1600 Y-1.7600
G01 Z-1.9000
G01 Z0
G00 Z2.0000
G00 X31.7000 Y-1.7600
G01 Z-1.9000
G01 Z0
G00 Z2.0000
G00 X34.2400 Y-1.7600
G01 Z-1.9000
G01 Z0
G00 Z2.0000
G00 X36.7800 Y-1.7600
G01 Z-1.9000
G01 Z0
G00 Z2.0000
G00 X39.3200 Y-1.7600
G01 Z-1.9000
G01 Z0
G00 Z2.0000
G00 X41.8600 Y-1.7600
G01 Z-1.9000
G01 Z0
G00 Z2.0000
G00 X44.4000 Y-1.7600
G01 Z-1.9000
G01 Z0
G00 Z2.0000
G00 X46.9400 Y-1.7600
G01 Z-1.9000
G01 Z0
G00 Z2.0000
G00 X49.4800 Y-1.7600
G01 Z-1.9000
G01 Z0
G00 Z2.0000
G00 X52.0200 Y-1.7600
G01 Z-1.9000
G01 Z0
G00 Z2.0000
G00 X54.5600 Y-1.7600
G01 Z-1.9000
G01 Z0
G00 Z2.0000
G00 X57.1000 Y-1.7600
G01 Z-1.9000
G01 Z0
G00 Z2.0000
G00 X59.6400 Y-1.7600
G01 Z-1.9000
G01 Z0
G00 Z2.0000
G00 X62.1800 Y-1.7600
G01 Z-1.9000
G01 Z0
G00 Z2.0000
G00 X64.7200 Y-1.7600
G01 Z-1.9000
G01 Z0
G00 Z2.0000
G00 X67.2600 Y-1.7600
G01 Z-1.9000
G01 Z0
G00 Z2.0000
G00 X67.2600 Y-17.0000
G01 Z-1.9000
G01 Z0
G00 Z2.0000
G00 X65.0000 Y-22.1900
G01 Z-1.9000
G01 Z0
G00 Z2.0000
G00 X68.0000 Y-22.1900
G01 Z-1.9000
G01 Z0
G00 Z2.0000
G00 X68.0000 Y-29.8100
G01 Z-1.9000
G01 Z0
G00 Z2.0000
G00 X65.0000 Y-29.8100
G01 Z-1.9000
G01 Z0
G00 Z2.0000
G00 X62.0000 Y-29.8100
G01 Z-1.9000
G01 Z0
G00 Z2.0000
G00 X59.0000 Y-29.8100
G01 Z-1.9000
G01 Z0
G00 Z2.0000
G00 X56.0000 Y-29.8100
G01 Z-1.9000
G01 Z0
G00 Z2.0000
G00 X53.0000 Y-29.8100
G01 Z-1.9000
G01 Z0
G00 Z2.0000
G00 X50.0000 Y-29.8100
G01 Z-1.9000
G01 Z0
G00 Z2.0000
G00 X47.0000 Y-29.8100
G01 Z-1.9000
G01 Z0
G00 Z2.0000
G00 X41.1480 Y-29.8100
G01 Z-1.9000
G01 Z0
G00 Z2.0000
G00 X38.4810 Y-29.8100
G01 Z-1.9000
G01 Z0
G00 Z2.0000
G00 X35.8140 Y-29.8100
G01 Z-1.9000
G01 Z0
G00 Z2.0000
G00 X33.1470 Y-29.8100
G01 Z-1.9000
G01 Z0
G00 Z2.0000
G00 X30.3530 Y-29.8100
G01 Z-1.9000
G01 Z0
G00 Z2.0000
G00 X25.6540 Y-28.8290
G01 Z-1.9000
G01 Z0
G00 Z2.0000
G00 X25.6540 Y-26.2890
G01 Z-1.9000
G01 Z0
G00 Z2.0000
G00 X25.6540 Y-23.7490
G01 Z-1.9000
G01 Z0
G00 Z2.0000
G00 X30.3530 Y-22.1900
G01 Z-1.9000
G01 Z0
G00 Z2.0000
G00 X33.1470 Y-22.1900
G01 Z-1.9000
G01 Z0
G00 Z2.0000
G00 X35.8140 Y-22.1900
G01 Z-1.9000
G01 Z0
G00 Z2.0000
G00 X38.4810 Y-22.1900
G01 Z-1.9000
G01 Z0
G00 Z2.0000
G00 X41.1480 Y-22.1900
G01 Z-1.9000
G01 Z0
G00 Z2.0000
G00 X47.0000 Y-22.1900
G01 Z-1.9000
G01 Z0
G00 Z2.0000
G00 X50.0000 Y-22.1900
G01 Z-1.9000
G01 Z0
G00 Z2.0000
G00 X53.0000 Y-22.1900
G01 Z-1.9000
G01 Z0
G00 Z2.0000
G00 X56.0000 Y-22.1900
G01 Z-1.9000
G01 Z0
G00 Z2.0000
G00 X59.0000 Y-22.1900
G01 Z-1.9000
G01 Z0
G00 Z2.0000
G00 X62.0000 Y-22.1900
G01 Z-1.9000
G01 Z0
G00 Z2.0000
G00 X64.7200 Y-17.0000
G01 Z-1.9000
G01 Z0
G00 Z2.0000
G00 X62.1800 Y-17.0000
G01 Z-1.9000
G01 Z0
G00 Z2.0000
G00 X59.6400 Y-17.0000
G01 Z-1.9000
G01 Z0
G00 Z2.0000
G00 X57.1000 Y-17.0000
G01 Z-1.9000
G01 Z0
G00 Z2.0000
G00 X54.5600 Y-17.0000
G01 Z-1.9000
G01 Z0
G00 Z2.0000
G00 X52.0200 Y-17.0000
G01 Z-1.9000
G01 Z0
G00 Z2.0000
G00 X49.4800 Y-17.0000
G01 Z-1.9000
G01 Z0
G00 Z2.0000
G00 X46.9400 Y-17.0000
G01 Z-1.9000
G01 Z0
G00 Z2.0000
G00 X44.4000 Y-17.0000
G01 Z-1.9000
G01 Z0
G00 Z2.0000
G00 X41.8600 Y-17.0000
G01 Z-1.9000
G01 Z0
G00 Z2.0000
G00 X39.3200 Y-17.0000
G01 Z-1.9000
G01 Z0
G00 Z2.0000
G00 X36.7800 Y-17.0000
G01 Z-1.9000
G01 Z0
G00 Z2.0000
G00 X34.2400 Y-17.0000
G01 Z-1.9000
G01 Z0
G00 Z2.0000
G00 X31.7000 Y-17.0000
G01 Z-1.9000
G01 Z0
G00 Z2.0000
G00 X29.1600 Y-17.0000
G01 Z-1.9000
G01 Z0
G00 Z2.0000
G00 X26.6200 Y-17.0000
G01 Z-1.9000
G01 Z0
G00 Z2.0000
G00 X24.0800 Y-17.0000
G01 Z-1.9000
G01 Z0
G00 Z2.0000
G00 X21.5400 Y-17.0000
G01 Z-1.9000
G01 Z0
G00 Z2.0000
G00 X19.0000 Y-17.0000
G01 Z-1.9000
G01 Z0
G00 Z2.0000
G00 X13.0000 Y-15.3110
G01 Z-1.9000
G01 Z0
G00 Z2.0000
G00 X13.0000 Y-12.7710
G01 Z-1.9000
G01 Z0
G00 Z2.0000
G00 X13.0000 Y-10.2310
G01 Z-1.9000
G01 Z0
G00 Z2.0000
G00 X8.3060 Y-14.9860
G01 Z-1.9000
G01 Z0
G00 Z2.0000
G00 X5.8670 Y-14.9860
G01 Z-1.9000
G01 Z0
G00 Z2.0000
G00 X5.8670 Y-12.8780
G01 Z-1.9000
G01 Z0
G00 Z2.0000
G01 F100.00

M5             
G00 Z20.0000
G00 X0.0000 Y0.0000                
T3
M6
(MSG, Change to Tool Dia = 1.1000 ||| Total drills for tool T3 = 24)
M0
G00 Z20.0000

G01 F100.00
M03 S100
G00 X73.7300 Y-2.0320
G01 Z-1.9000
G01 Z0
G00 Z2.0000
G00 X73.7300 Y-4.5720
G01 Z-1.9000
G01 Z0
G00 Z2.0000
G00 X73.7300 Y-7.1120
G01 Z-1.9000
G01 Z0
G00 Z2.0000
G00 X73.7300 Y-9.6520
G01 Z-1.9000
G01 Z0
G00 Z2.0000
G00 X73.7300 Y-12.1920
G01 Z-1.9000
G01 Z0
G00 Z2.0000
G00 X73.7300 Y-14.7320
G01 Z-1.9000
G01 Z0
G00 Z2.0000
G00 X73.7300 Y-17.2720
G01 Z-1.9000
G01 Z0
G00 Z2.0000
G00 X73.7300 Y-19.8120
G01 Z-1.9000
G01 Z0
G00 Z2.0000
G00 X73.7300 Y-22.3520
G01 Z-1.9000
G01 Z0
G00 Z2.0000
G00 X73.7300 Y-24.8920
G01 Z-1.9000
G01 Z0
G00 Z2.0000
G00 X73.7300 Y-27.4320
G01 Z-1.9000
G01 Z0
G00 Z2.0000
G00 X73.7300 Y-29.9720
G01 Z-1.9000
G01 Z0
G00 Z2.0000
G00 X76.2700 Y-29.9720
G01 Z-1.9000
G01 Z0
G00 Z2.0000
G00 X76.2700 Y-27.4320
G01 Z-1.9000
G01 Z0
G00 Z2.0000
G00 X76.2700 Y-24.8920
G01 Z-1.9000
G01 Z0
G00 Z2.0000
G00 X76.2700 Y-22.3520
G01 Z-1.9000
G01 Z0
G00 Z2.0000
G00 X76.2700 Y-19.8120
G01 Z-1.9000
G01 Z0
G00 Z2.0000
G00 X76.2700 Y-17.2720
G01 Z-1.9000
G01 Z0
G00 Z2.0000
G00 X76.2700 Y-14.7320
G01 Z-1.9000
G01 Z0
G00 Z2.0000
G00 X76.2700 Y-12.1920
G01 Z-1.9000
G01 Z0
G00 Z2.0000
G00 X76.2700 Y-9.6520
G01 Z-1.9000
G01 Z0
G00 Z2.0000
G00 X76.2700 Y-7.1120
G01 Z-1.9000
G01 Z0
G00 Z2.0000
G00 X76.2700 Y-4.5720
G01 Z-1.9000
G01 Z0
G00 Z2.0000
G00 X76.2700 Y-2.0320
G01 Z-1.9000
G01 Z0
G00 Z2.0000
G01 F100.00

M5             
G00 Z20.0000
G00 X0.0000 Y0.0000                
T4
M6
(MSG, Change to Tool Dia = 2.3000 ||| Total drills for tool T4 = 3)
M0
G00 Z20.0000

G01 F100.00
M03 S100
G00 X2.8700 Y-4.7750
G01 Z-1.9000
G01 Z0
G00 Z2.0000
G00 X2.0570 Y-11.5820
G01 Z-1.9000
G01 Z0
G00 Z2.0000
G00 X2.8700 Y-18.3390
G01 Z-1.9000
G01 Z0
G00 Z2.0000
M05
G00 Z1.00
G00 X0.0 Y0.0


