(G-CODE GENERATED BY FLATCAM v8.994 - www.flatcam.org - Version Date: 2020/11/7)

(Name: Gerber_BoardOutlineLayer.GKO_cutout_1_cnc)
(Type: G-code from Geometry)
(Units: MM)

(Created on Sunday, 10 July 2022 at 00:50)

(This preprocessor is used with a motion controller loaded with GRBL firmware.)
(It is configured to be compatible with almost any version of GRBL firmware.)

(TOOL DIAMETER: 1.0 mm)
(Feedrate_XY: 120.0 mm/min)
(Feedrate_Z: 60.0 mm/min)
(Feedrate rapids 1500.0 mm/min)

(Z_Cut: -1.9 mm)
(DepthPerCut: 0.6 mm <=>4 passes)
(Z_Move: 2.0 mm)
(Z Start: None mm)
(Z End: 20.0 mm)
(X,Y End: 0.0000, 0.0000 mm)
(Steps per circle: 64)
(Steps per circle: 64)
(Preprocessor Geometry: grbl_11)

(X range:   -0.7271 ...   80.7269  mm)
(Y range:  -32.7270 ...    0.7271  mm)

(Spindle Speed: 0.0 RPM)
G21
G90
G17
G94


G01 F120.00

M5             
G00 Z20.0000
G00 X0.0000 Y0.0000                
T1
M6
(MSG, Change to Tool Dia = 1.0000)
M0
G00 Z20.0000

M03
G01 F120.00
G00 X-0.7271 Y-14.4000
G01 F60.00
G01 Z-0.6000
G01 F120.00
G01 X-0.7271 Y0.1271 F120.00
G01 X-0.7242 Y0.1859 F120.00
G01 X-0.7155 Y0.2441 F120.00
G01 X-0.7012 Y0.3012 F120.00
G01 X-0.6814 Y0.3567 F120.00
G01 X-0.6562 Y0.4099 F120.00
G01 X-0.6259 Y0.4604 F120.00
G01 X-0.5909 Y0.5077 F120.00
G01 X-0.5513 Y0.5513 F120.00
G01 X-0.5077 Y0.5909 F120.00
G01 X-0.4604 Y0.6259 F120.00
G01 X-0.4099 Y0.6562 F120.00
G01 X-0.3567 Y0.6814 F120.00
G01 X-0.3012 Y0.7012 F120.00
G01 X-0.2441 Y0.7155 F120.00
G01 X-0.1859 Y0.7242 F120.00
G01 X-0.1271 Y0.7271 F120.00
G01 X38.5999 Y0.7271 F120.00
G00 X38.5999 Y0.7271
G01 F60.00
G01 Z-1.2000
G01 F120.00
G01 X-0.1271 Y0.7271 F120.00
G01 X-0.1859 Y0.7242 F120.00
G01 X-0.2441 Y0.7155 F120.00
G01 X-0.3012 Y0.7012 F120.00
G01 X-0.3567 Y0.6814 F120.00
G01 X-0.4099 Y0.6562 F120.00
G01 X-0.4604 Y0.6259 F120.00
G01 X-0.5077 Y0.5909 F120.00
G01 X-0.5513 Y0.5513 F120.00
G01 X-0.5909 Y0.5077 F120.00
G01 X-0.6259 Y0.4604 F120.00
G01 X-0.6562 Y0.4099 F120.00
G01 X-0.6814 Y0.3567 F120.00
G01 X-0.7012 Y0.3012 F120.00
G01 X-0.7155 Y0.2441 F120.00
G01 X-0.7242 Y0.1859 F120.00
G01 X-0.7271 Y0.1271 F120.00
G01 X-0.7271 Y-14.4000 F120.00
G00 X-0.7271 Y-14.4000
G01 F60.00
G01 Z-1.8000
G01 F120.00
G01 X-0.7271 Y0.1271 F120.00
G01 X-0.7242 Y0.1859 F120.00
G01 X-0.7155 Y0.2441 F120.00
G01 X-0.7012 Y0.3012 F120.00
G01 X-0.6814 Y0.3567 F120.00
G01 X-0.6562 Y0.4099 F120.00
G01 X-0.6259 Y0.4604 F120.00
G01 X-0.5909 Y0.5077 F120.00
G01 X-0.5513 Y0.5513 F120.00
G01 X-0.5077 Y0.5909 F120.00
G01 X-0.4604 Y0.6259 F120.00
G01 X-0.4099 Y0.6562 F120.00
G01 X-0.3567 Y0.6814 F120.00
G01 X-0.3012 Y0.7012 F120.00
G01 X-0.2441 Y0.7155 F120.00
G01 X-0.1859 Y0.7242 F120.00
G01 X-0.1271 Y0.7271 F120.00
G01 X38.5999 Y0.7271 F120.00
G00 X38.5999 Y0.7271
G01 F60.00
G01 Z-1.9000
G01 F120.00
G01 X-0.1271 Y0.7271 F120.00
G01 X-0.1859 Y0.7242 F120.00
G01 X-0.2441 Y0.7155 F120.00
G01 X-0.3012 Y0.7012 F120.00
G01 X-0.3567 Y0.6814 F120.00
G01 X-0.4099 Y0.6562 F120.00
G01 X-0.4604 Y0.6259 F120.00
G01 X-0.5077 Y0.5909 F120.00
G01 X-0.5513 Y0.5513 F120.00
G01 X-0.5909 Y0.5077 F120.00
G01 X-0.6259 Y0.4604 F120.00
G01 X-0.6562 Y0.4099 F120.00
G01 X-0.6814 Y0.3567 F120.00
G01 X-0.7012 Y0.3012 F120.00
G01 X-0.7155 Y0.2441 F120.00
G01 X-0.7242 Y0.1859 F120.00
G01 X-0.7271 Y0.1271 F120.00
G01 X-0.7271 Y-14.4000 F120.00
G00 Z2.0000
G00 X41.5999 Y0.7271
G01 F60.00
G01 Z-0.6000
G01 F120.00
G01 X80.1269 Y0.7271 F120.00
G01 X80.1857 Y0.7242 F120.00
G01 X80.2440 Y0.7155 F120.00
G01 X80.3011 Y0.7012 F120.00
G01 X80.3565 Y0.6814 F120.00
G01 X80.4097 Y0.6562 F120.00
G01 X80.4602 Y0.6259 F120.00
G01 X80.5075 Y0.5909 F120.00
G01 X80.5512 Y0.5513 F120.00
G01 X80.5907 Y0.5077 F120.00
G01 X80.6258 Y0.4604 F120.00
G01 X80.6561 Y0.4099 F120.00
G01 X80.6812 Y0.3567 F120.00
G01 X80.7011 Y0.3012 F120.00
G01 X80.7154 Y0.2441 F120.00
G01 X80.7240 Y0.1859 F120.00
G01 X80.7269 Y0.1271 F120.00
G01 X80.7269 Y-14.4000 F120.00
G00 X80.7269 Y-14.4000
G01 F60.00
G01 Z-1.2000
G01 F120.00
G01 X80.7269 Y0.1271 F120.00
G01 X80.7240 Y0.1859 F120.00
G01 X80.7154 Y0.2441 F120.00
G01 X80.7011 Y0.3012 F120.00
G01 X80.6812 Y0.3567 F120.00
G01 X80.6561 Y0.4099 F120.00
G01 X80.6258 Y0.4604 F120.00
G01 X80.5907 Y0.5077 F120.00
G01 X80.5512 Y0.5513 F120.00
G01 X80.5075 Y0.5909 F120.00
G01 X80.4602 Y0.6259 F120.00
G01 X80.4097 Y0.6562 F120.00
G01 X80.3565 Y0.6814 F120.00
G01 X80.3011 Y0.7012 F120.00
G01 X80.2440 Y0.7155 F120.00
G01 X80.1857 Y0.7242 F120.00
G01 X80.1269 Y0.7271 F120.00
G01 X41.5999 Y0.7271 F120.00
G00 X41.5999 Y0.7271
G01 F60.00
G01 Z-1.8000
G01 F120.00
G01 X80.1269 Y0.7271 F120.00
G01 X80.1857 Y0.7242 F120.00
G01 X80.2440 Y0.7155 F120.00
G01 X80.3011 Y0.7012 F120.00
G01 X80.3565 Y0.6814 F120.00
G01 X80.4097 Y0.6562 F120.00
G01 X80.4602 Y0.6259 F120.00
G01 X80.5075 Y0.5909 F120.00
G01 X80.5512 Y0.5513 F120.00
G01 X80.5907 Y0.5077 F120.00
G01 X80.6258 Y0.4604 F120.00
G01 X80.6561 Y0.4099 F120.00
G01 X80.6812 Y0.3567 F120.00
G01 X80.7011 Y0.3012 F120.00
G01 X80.7154 Y0.2441 F120.00
G01 X80.7240 Y0.1859 F120.00
G01 X80.7269 Y0.1271 F120.00
G01 X80.7269 Y-14.4000 F120.00
G00 X80.7269 Y-14.4000
G01 F60.00
G01 Z-1.9000
G01 F120.00
G01 X80.7269 Y0.1271 F120.00
G01 X80.7240 Y0.1859 F120.00
G01 X80.7154 Y0.2441 F120.00
G01 X80.7011 Y0.3012 F120.00
G01 X80.6812 Y0.3567 F120.00
G01 X80.6561 Y0.4099 F120.00
G01 X80.6258 Y0.4604 F120.00
G01 X80.5907 Y0.5077 F120.00
G01 X80.5512 Y0.5513 F120.00
G01 X80.5075 Y0.5909 F120.00
G01 X80.4602 Y0.6259 F120.00
G01 X80.4097 Y0.6562 F120.00
G01 X80.3565 Y0.6814 F120.00
G01 X80.3011 Y0.7012 F120.00
G01 X80.2440 Y0.7155 F120.00
G01 X80.1857 Y0.7242 F120.00
G01 X80.1269 Y0.7271 F120.00
G01 X41.5999 Y0.7271 F120.00
G00 Z2.0000
G00 X80.7269 Y-17.4000
G01 F60.00
G01 Z-0.6000
G01 F120.00
G01 X80.7269 Y-32.1270 F120.00
G01 X80.7240 Y-32.1858 F120.00
G01 X80.7154 Y-32.2440 F120.00
G01 X80.7011 Y-32.3012 F120.00
G01 X80.6812 Y-32.3566 F120.00
G01 X80.6561 Y-32.4098 F120.00
G01 X80.6258 Y-32.4603 F120.00
G01 X80.5907 Y-32.5076 F120.00
G01 X80.5512 Y-32.5513 F120.00
G01 X80.5075 Y-32.5908 F120.00
G01 X80.4602 Y-32.6259 F120.00
G01 X80.4097 Y-32.6561 F120.00
G01 X80.3565 Y-32.6813 F120.00
G01 X80.3011 Y-32.7012 F120.00
G01 X80.2440 Y-32.7155 F120.00
G01 X80.1857 Y-32.7241 F120.00
G01 X80.1269 Y-32.7270 F120.00
G01 X41.5999 Y-32.7270 F120.00
G00 X41.5999 Y-32.7270
G01 F60.00
G01 Z-1.2000
G01 F120.00
G01 X80.1269 Y-32.7270 F120.00
G01 X80.1857 Y-32.7241 F120.00
G01 X80.2440 Y-32.7155 F120.00
G01 X80.3011 Y-32.7012 F120.00
G01 X80.3565 Y-32.6813 F120.00
G01 X80.4097 Y-32.6561 F120.00
G01 X80.4602 Y-32.6259 F120.00
G01 X80.5075 Y-32.5908 F120.00
G01 X80.5512 Y-32.5513 F120.00
G01 X80.5907 Y-32.5076 F120.00
G01 X80.6258 Y-32.4603 F120.00
G01 X80.6561 Y-32.4098 F120.00
G01 X80.6812 Y-32.3566 F120.00
G01 X80.7011 Y-32.3012 F120.00
G01 X80.7154 Y-32.2440 F120.00
G01 X80.7240 Y-32.1858 F120.00
G01 X80.7269 Y-32.1270 F120.00
G01 X80.7269 Y-17.4000 F120.00
G00 X80.7269 Y-17.4000
G01 F60.00
G01 Z-1.8000
G01 F120.00
G01 X80.7269 Y-32.1270 F120.00
G01 X80.7240 Y-32.1858 F120.00
G01 X80.7154 Y-32.2440 F120.00
G01 X80.7011 Y-32.3012 F120.00
G01 X80.6812 Y-32.3566 F120.00
G01 X80.6561 Y-32.4098 F120.00
G01 X80.6258 Y-32.4603 F120.00
G01 X80.5907 Y-32.5076 F120.00
G01 X80.5512 Y-32.5513 F120.00
G01 X80.5075 Y-32.5908 F120.00
G01 X80.4602 Y-32.6259 F120.00
G01 X80.4097 Y-32.6561 F120.00
G01 X80.3565 Y-32.6813 F120.00
G01 X80.3011 Y-32.7012 F120.00
G01 X80.2440 Y-32.7155 F120.00
G01 X80.1857 Y-32.7241 F120.00
G01 X80.1269 Y-32.7270 F120.00
G01 X41.5999 Y-32.7270 F120.00
G00 X41.5999 Y-32.7270
G01 F60.00
G01 Z-1.9000
G01 F120.00
G01 X80.1269 Y-32.7270 F120.00
G01 X80.1857 Y-32.7241 F120.00
G01 X80.2440 Y-32.7155 F120.00
G01 X80.3011 Y-32.7012 F120.00
G01 X80.3565 Y-32.6813 F120.00
G01 X80.4097 Y-32.6561 F120.00
G01 X80.4602 Y-32.6259 F120.00
G01 X80.5075 Y-32.5908 F120.00
G01 X80.5512 Y-32.5513 F120.00
G01 X80.5907 Y-32.5076 F120.00
G01 X80.6258 Y-32.4603 F120.00
G01 X80.6561 Y-32.4098 F120.00
G01 X80.6812 Y-32.3566 F120.00
G01 X80.7011 Y-32.3012 F120.00
G01 X80.7154 Y-32.2440 F120.00
G01 X80.7240 Y-32.1858 F120.00
G01 X80.7269 Y-32.1270 F120.00
G01 X80.7269 Y-17.4000 F120.00
G00 Z2.0000
G00 X38.5999 Y-32.7270
G01 F60.00
G01 Z-0.6000
G01 F120.00
G01 X-0.1271 Y-32.7270 F120.00
G01 X-0.1859 Y-32.7241 F120.00
G01 X-0.2441 Y-32.7155 F120.00
G01 X-0.3012 Y-32.7012 F120.00
G01 X-0.3567 Y-32.6813 F120.00
G01 X-0.4099 Y-32.6561 F120.00
G01 X-0.4604 Y-32.6259 F120.00
G01 X-0.5077 Y-32.5908 F120.00
G01 X-0.5513 Y-32.5513 F120.00
G01 X-0.5909 Y-32.5076 F120.00
G01 X-0.6259 Y-32.4603 F120.00
G01 X-0.6562 Y-32.4098 F120.00
G01 X-0.6814 Y-32.3566 F120.00
G01 X-0.7012 Y-32.3012 F120.00
G01 X-0.7155 Y-32.2440 F120.00
G01 X-0.7242 Y-32.1858 F120.00
G01 X-0.7271 Y-32.1270 F120.00
G01 X-0.7271 Y-17.4000 F120.00
G00 X-0.7271 Y-17.4000
G01 F60.00
G01 Z-1.2000
G01 F120.00
G01 X-0.7271 Y-32.1270 F120.00
G01 X-0.7242 Y-32.1858 F120.00
G01 X-0.7155 Y-32.2440 F120.00
G01 X-0.7012 Y-32.3012 F120.00
G01 X-0.6814 Y-32.3566 F120.00
G01 X-0.6562 Y-32.4098 F120.00
G01 X-0.6259 Y-32.4603 F120.00
G01 X-0.5909 Y-32.5076 F120.00
G01 X-0.5513 Y-32.5513 F120.00
G01 X-0.5077 Y-32.5908 F120.00
G01 X-0.4604 Y-32.6259 F120.00
G01 X-0.4099 Y-32.6561 F120.00
G01 X-0.3567 Y-32.6813 F120.00
G01 X-0.3012 Y-32.7012 F120.00
G01 X-0.2441 Y-32.7155 F120.00
G01 X-0.1859 Y-32.7241 F120.00
G01 X-0.1271 Y-32.7270 F120.00
G01 X38.5999 Y-32.7270 F120.00
G00 X38.5999 Y-32.7270
G01 F60.00
G01 Z-1.8000
G01 F120.00
G01 X-0.1271 Y-32.7270 F120.00
G01 X-0.1859 Y-32.7241 F120.00
G01 X-0.2441 Y-32.7155 F120.00
G01 X-0.3012 Y-32.7012 F120.00
G01 X-0.3567 Y-32.6813 F120.00
G01 X-0.4099 Y-32.6561 F120.00
G01 X-0.4604 Y-32.6259 F120.00
G01 X-0.5077 Y-32.5908 F120.00
G01 X-0.5513 Y-32.5513 F120.00
G01 X-0.5909 Y-32.5076 F120.00
G01 X-0.6259 Y-32.4603 F120.00
G01 X-0.6562 Y-32.4098 F120.00
G01 X-0.6814 Y-32.3566 F120.00
G01 X-0.7012 Y-32.3012 F120.00
G01 X-0.7155 Y-32.2440 F120.00
G01 X-0.7242 Y-32.1858 F120.00
G01 X-0.7271 Y-32.1270 F120.00
G01 X-0.7271 Y-17.4000 F120.00
G00 X-0.7271 Y-17.4000
G01 F60.00
G01 Z-1.9000
G01 F120.00
G01 X-0.7271 Y-32.1270 F120.00
G01 X-0.7242 Y-32.1858 F120.00
G01 X-0.7155 Y-32.2440 F120.00
G01 X-0.7012 Y-32.3012 F120.00
G01 X-0.6814 Y-32.3566 F120.00
G01 X-0.6562 Y-32.4098 F120.00
G01 X-0.6259 Y-32.4603 F120.00
G01 X-0.5909 Y-32.5076 F120.00
G01 X-0.5513 Y-32.5513 F120.00
G01 X-0.5077 Y-32.5908 F120.00
G01 X-0.4604 Y-32.6259 F120.00
G01 X-0.4099 Y-32.6561 F120.00
G01 X-0.3567 Y-32.6813 F120.00
G01 X-0.3012 Y-32.7012 F120.00
G01 X-0.2441 Y-32.7155 F120.00
G01 X-0.1859 Y-32.7241 F120.00
G01 X-0.1271 Y-32.7270 F120.00
G01 X38.5999 Y-32.7270 F120.00
G00 Z2.0000
M05
G00 Z2.0000
G00 Z20.00
G00 X0.0 Y0.0


